src/assets/images/referall-img.svg

<svg width="105" height="106" viewBox="0 0 105 106" fill="none" xmlns="http://www.w3.org/2000/svg">
<ellipse cx="52.5" cy="52.4689" rx="52.5" ry="52.2819" fill="white" fill-opacity="0.05"/>
<path fill-rule="evenodd" clip-rule="evenodd" d="M60.5275 22.0175C55.3371 18.347 48.3967 18.347 43.2062 22.0175L36.2375 26.9454C28.5093 32.4105 28.2832 42.2104 33.0491 48.4477H13.4219C9.55588 48.4477 6.42188 51.5817 6.42188 55.4477V80.1877C6.42188 93.9948 17.6148 105.188 31.4219 105.188H72.3133C86.1205 105.188 97.3133 93.9948 97.3133 80.1877V55.4477C97.3133 51.5817 94.1793 48.4477 90.3133 48.4477H70.6846C75.4505 42.2104 75.2245 32.4105 67.4962 26.9454L60.5275 22.0175Z" fill="#0073FF"/>
<mask id="mask0_1370_11643" style="mask-type:alpha" maskUnits="userSpaceOnUse" x="6" y="18" width="92" height="88">
<path fill-rule="evenodd" clip-rule="evenodd" d="M57.1229 20.1863C53.9824 17.9262 49.7488 17.9262 46.6084 20.1863L24.1202 36.371C19.8488 39.4451 19.4592 44.7295 21.7336 48.4474H13.418C9.55198 48.4474 6.41797 51.5814 6.41797 55.4474V80.1874C6.41797 93.9945 17.6109 105.187 31.418 105.187H72.3094C86.1166 105.187 97.3094 93.9945 97.3094 80.1874V55.4474C97.3094 51.5814 94.1754 48.4474 90.3094 48.4474H81.9977C84.2721 44.7295 83.8825 39.4451 79.6111 36.371L57.1229 20.1863Z" fill="#0073FF"/>
</mask>
<g mask="url(#mask0_1370_11643)">
<rect x="19.1719" y="54.7988" width="66.2015" height="29.1806" fill="white"/>
<path d="M6.42188 105.565V54.4985L97.856 105.565H6.42188Z" fill="white"/>
<path d="M6.42188 105.565V54.4985L97.856 105.565H6.42188Z" fill="url(#paint0_linear_1370_11643)"/>
<path d="M97.8516 105.565V54.4985L6.41746 105.565H97.8516Z" fill="white"/>
<path d="M97.8516 105.565V54.4985L6.41746 105.565H97.8516Z" fill="url(#paint1_linear_1370_11643)"/>
<path d="M39.347 77.9815C46.6385 71.8311 57.3012 71.8311 64.5926 77.9815C78.5445 89.7501 70.2223 112.523 51.9698 112.523C33.7174 112.523 25.3952 89.7501 39.347 77.9815Z" fill="white"/>
<path d="M39.347 77.9815C46.6385 71.8311 57.3012 71.8311 64.5926 77.9815C78.5445 89.7501 70.2223 112.523 51.9698 112.523C33.7174 112.523 25.3952 89.7501 39.347 77.9815Z" fill="url(#paint2_linear_1370_11643)"/>
</g>
<path d="M19.1719 31.0215H60.7861C74.3653 31.0215 85.3734 42.0296 85.3734 55.6088H19.1719V31.0215Z" fill="white"/>
<path d="M19.1719 31.0215H60.7861C74.3653 31.0215 85.3734 42.0296 85.3734 55.6088H19.1719V31.0215Z" fill="white"/>
<path fill-rule="evenodd" clip-rule="evenodd" d="M71.5861 31.0214H19.5385C19.2627 31.003 18.9845 30.9937 18.7041 30.9937C12.0342 30.9937 6.60542 36.2852 6.41992 42.8827H18.0869V42.9098H60.416C60.5969 36.4977 65.7304 31.3195 72.1423 31.0342C71.958 31.0257 71.7725 31.0214 71.5861 31.0214Z" fill="white"/>
<path fill-rule="evenodd" clip-rule="evenodd" d="M71.5861 31.0214H19.5385C19.2627 31.003 18.9845 30.9937 18.7041 30.9937C12.0342 30.9937 6.60542 36.2852 6.41992 42.8827H18.0869V42.9098H60.416C60.5969 36.4977 65.7304 31.3195 72.1423 31.0342C71.958 31.0257 71.7725 31.0214 71.5861 31.0214Z" fill="url(#paint3_linear_1370_11643)"/>
<path fill-rule="evenodd" clip-rule="evenodd" d="M34.9102 49.3647H68.8249V50.9859H34.9102V49.3647ZM34.9102 54.7674H68.8249V56.3886H34.9102V54.7674ZM68.8249 60.1721H34.9102V61.7932H68.8249V60.1721Z" fill="white"/>
<path fill-rule="evenodd" clip-rule="evenodd" d="M34.9102 49.3647H68.8249V50.9859H34.9102V49.3647ZM34.9102 54.7674H68.8249V56.3886H34.9102V54.7674ZM68.8249 60.1721H34.9102V61.7932H68.8249V60.1721Z" fill="url(#paint4_linear_1370_11643)"/>
<ellipse cx="84.9363" cy="28.0662" rx="13.1589" ry="13.1042" fill="url(#paint5_linear_1370_11643)"/>
<path fill-rule="evenodd" clip-rule="evenodd" d="M82.9349 31.3451L87.2479 23.9058C86.6127 23.5406 85.6969 24.1978 83.8653 25.5122L80.9639 27.5942C79.8517 28.3924 79.2956 28.7914 79.1359 29.1521C78.9052 29.6732 79.0089 30.2609 79.3926 30.6067C79.6582 30.846 80.2951 30.9046 81.5688 31.0219C82.0401 31.0652 82.2757 31.0869 82.4917 31.153C82.6471 31.2005 82.7956 31.2649 82.9349 31.3451Z" fill="white"/>
<path opacity="0.5" d="M87.1825 31.1695L87.5424 27.6262L87.5424 27.6262C87.7696 25.3894 87.8832 24.271 87.248 23.9058L82.9351 31.345C83.0745 31.4251 83.2047 31.5209 83.3237 31.6312C83.4892 31.7845 83.6259 31.9768 83.8992 32.3616C84.638 33.4014 85.0075 33.9214 85.3484 34.0308C85.8409 34.1888 86.4039 33.9844 86.7417 33.5249C86.9755 33.2068 87.0445 32.5277 87.1825 31.1695Z" fill="#FFE8E8"/>
<defs>
<linearGradient id="paint0_linear_1370_11643" x1="18.4746" y1="105.565" x2="44.6273" y2="41.9047" gradientUnits="userSpaceOnUse">
<stop stop-color="#0073FF"/>
<stop offset="1" stop-color="#00C2FF"/>
</linearGradient>
<linearGradient id="paint1_linear_1370_11643" x1="85.7989" y1="105.565" x2="59.6462" y2="41.9047" gradientUnits="userSpaceOnUse">
<stop stop-color="#0073FF"/>
<stop offset="1" stop-color="#00C2FF"/>
</linearGradient>
<linearGradient id="paint2_linear_1370_11643" x1="6.41804" y1="127.587" x2="34.2897" y2="49.7822" gradientUnits="userSpaceOnUse">
<stop stop-color="#0073FF"/>
<stop offset="1" stop-color="#00C2FF"/>
</linearGradient>
<linearGradient id="paint3_linear_1370_11643" x1="15.0833" y1="42.9098" x2="17.3584" y2="25.8512" gradientUnits="userSpaceOnUse">
<stop stop-color="#0073FF"/>
<stop offset="1" stop-color="#00C2FF"/>
</linearGradient>
<linearGradient id="paint4_linear_1370_11643" x1="39.3807" y1="61.7932" x2="43.9314" y2="44.9114" gradientUnits="userSpaceOnUse">
<stop stop-color="#0073FF"/>
<stop offset="1" stop-color="#00C2FF"/>
</linearGradient>
<linearGradient id="paint5_linear_1370_11643" x1="84.9363" y1="14.9619" x2="84.9363" y2="41.1704" gradientUnits="userSpaceOnUse">
<stop stop-color="#FF9898"/>
<stop offset="1" stop-color="#FF4F4F"/>
</linearGradient>
</defs>
</svg>

<svg width="105" height="106" fill="none" xmlns="http://www.w3.org/2000/svg"><ellipse cx="52.5" cy="52.469" rx="52.5" ry="52.282" fill="#fff" fill-opacity=".05"/><path fill-rule="evenodd" clip-rule="evenodd" d="M60.528 22.017a15 15 0 0 0-17.322 0l-6.969 4.928C28.51 32.41 28.283 42.21 33.05 48.448H13.422a7 7 0 0 0-7 7v24.74c0 13.807 11.193 25 25 25h40.891c13.808 0 25-11.193 25-25v-24.74a7 7 0 0 0-7-7H70.685c4.766-6.238 4.54-16.038-3.189-21.503l-6.968-4.928Z" fill="#0073FF"/><mask id="a" style="mask-type:alpha" maskUnits="userSpaceOnUse" x="6" y="18" width="92" height="88"><path fill-rule="evenodd" clip-rule="evenodd" d="M57.123 20.186a9 9 0 0 0-10.515 0L24.12 36.371c-4.271 3.074-4.66 8.358-2.386 12.076h-8.316a7 7 0 0 0-7 7v24.74c0 13.808 11.193 25 25 25h40.891c13.808 0 25-11.192 25-25v-24.74a7 7 0 0 0-7-7h-8.311c2.274-3.718 1.884-9.002-2.387-12.076L57.123 20.186Z" fill="#0073FF"/></mask><g mask="url(#a)"><path fill="#fff" d="M19.172 54.799h66.201V83.98H19.172z"/><path d="M6.422 105.565V54.499l91.434 51.066H6.422Z" fill="#fff"/><path d="M6.422 105.565V54.499l91.434 51.066H6.422Z" fill="url(#b)"/><path d="M97.852 105.565V54.499L6.417 105.565h91.435Z" fill="#fff"/><path d="M97.852 105.565V54.499L6.417 105.565h91.435Z" fill="url(#c)"/><path d="M39.347 77.981c7.291-6.15 17.954-6.15 25.246 0 13.951 11.77 5.63 34.542-12.623 34.542S25.395 89.75 39.347 77.982Z" fill="#fff"/><path d="M39.347 77.981c7.291-6.15 17.954-6.15 25.246 0 13.951 11.77 5.63 34.542-12.623 34.542S25.395 89.75 39.347 77.982Z" fill="url(#d)"/></g><path d="M19.172 31.021h41.614c13.58 0 24.587 11.009 24.587 24.588H19.172V31.02Z" fill="#fff"/><path d="M19.172 31.021h41.614c13.58 0 24.587 11.009 24.587 24.588H19.172V31.02Z" fill="#fff"/><path fill-rule="evenodd" clip-rule="evenodd" d="M71.586 31.021H19.54a12.533 12.533 0 0 0-.835-.027c-6.67 0-12.099 5.291-12.284 11.889h11.667v.027h42.329c.18-6.412 5.314-11.59 11.726-11.876-.184-.008-.37-.013-.556-.013Z" fill="#fff"/><path fill-rule="evenodd" clip-rule="evenodd" d="M71.586 31.021H19.54a12.533 12.533 0 0 0-.835-.027c-6.67 0-12.099 5.291-12.284 11.889h11.667v.027h42.329c.18-6.412 5.314-11.59 11.726-11.876-.184-.008-.37-.013-.556-.013Z" fill="url(#e)"/><path fill-rule="evenodd" clip-rule="evenodd" d="M34.91 49.365h33.915v1.62H34.91v-1.62Zm0 5.402h33.915v1.622H34.91v-1.622Zm33.915 5.405H34.91v1.621h33.915v-1.62Z" fill="#fff"/><path fill-rule="evenodd" clip-rule="evenodd" d="M34.91 49.365h33.915v1.62H34.91v-1.62Zm0 5.402h33.915v1.622H34.91v-1.622Zm33.915 5.405H34.91v1.621h33.915v-1.62Z" fill="url(#f)"/><ellipse cx="84.936" cy="28.066" rx="13.159" ry="13.104" fill="url(#g)"/><path fill-rule="evenodd" clip-rule="evenodd" d="m82.935 31.345 4.313-7.44c-.635-.364-1.551.293-3.383 1.607l-2.901 2.082c-1.112.798-1.668 1.197-1.828 1.558-.23.521-.127 1.109.257 1.455.265.239.902.298 2.176.415.471.043.707.065.923.131.155.048.304.112.443.192Z" fill="#fff"/><path opacity=".5" d="m87.183 31.17.36-3.544c.227-2.237.34-3.355-.295-3.72l-4.313 7.439c.14.08.27.176.389.286.165.154.302.346.575.73.739 1.04 1.108 1.56 1.45 1.67.492.158 1.055-.047 1.393-.506.233-.318.302-.997.44-2.355Z" fill="#FFE8E8"/><defs><linearGradient id="b" x1="18.475" y1="105.565" x2="44.627" y2="41.905" gradientUnits="userSpaceOnUse"><stop stop-color="#0073FF"/><stop offset="1" stop-color="#00C2FF"/></linearGradient><linearGradient id="c" x1="85.799" y1="105.565" x2="59.646" y2="41.905" gradientUnits="userSpaceOnUse"><stop stop-color="#0073FF"/><stop offset="1" stop-color="#00C2FF"/></linearGradient><linearGradient id="d" x1="6.418" y1="127.587" x2="34.29" y2="49.782" gradientUnits="userSpaceOnUse"><stop stop-color="#0073FF"/><stop offset="1" stop-color="#00C2FF"/></linearGradient><linearGradient id="e" x1="15.083" y1="42.91" x2="17.358" y2="25.851" gradientUnits="userSpaceOnUse"><stop stop-color="#0073FF"/><stop offset="1" stop-color="#00C2FF"/></linearGradient><linearGradient id="f" x1="39.381" y1="61.793" x2="43.931" y2="44.911" gradientUnits="userSpaceOnUse"><stop stop-color="#0073FF"/><stop offset="1" stop-color="#00C2FF"/></linearGradient><linearGradient id="g" x1="84.936" y1="14.962" x2="84.936" y2="41.17" gradientUnits="userSpaceOnUse"><stop stop-color="#FF9898"/><stop offset="1" stop-color="#FF4F4F"/></linearGradient></defs></svg>
